!!!COM: Balsamino, Simone
!!!CDT:
!!!PTL: Novellette a sei voci
!!!PPP: Venice
!!!PPR: Amadino
!!!PDT: 1594
!!!PUB-format:
!!!RISM: B 785
!!!OTL: Dunque andar non vogliamo? Andare io voglio
!!!AGN: Madrigal
!!!SCT: Tam2031109a
!!!SCA: Tam2031109a
!!!original-voices: 6
!!!extant-voices: 6
!!!complete: Y
!!!final: (C)F
**kern	**text	**kern	**text	**kern	**text	**kern	**text	**kern	**text	**kern	**text
*part6	*part6	*part5	*part5	*part4	*part4	*part3	*part3	*part2	*part2	*part1	*part1
*staff6	*staff6	*staff5	*staff5	*staff4	*staff4	*staff3	*staff3	*staff2	*staff2	*staff1	*staff1
*I"Basso	*	*I"Quinto	*	*I"Tenore	*	*I"Alto	*	*I"Sesto	*	*I"Canto	*
*I'B	*	*I'V	*	*I'T	*	*I'A	*	*I'VI	*	*I'C	*
*oclefF4	*	*oclefC4	*	*oclefC4	*	*oclefC3	*	*oclefC1	*	*oclefC1	*
*clefF4	*	*clefGv2	*	*clefGv2	*	*clefG2	*	*clefG2	*	*clefG2	*
*k[b-]	*	*k[b-]	*	*k[b-]	*	*k[b-]	*	*k[b-]	*	*k[b-]	*
*d:	*	*d:	*	*d:	*	*d:	*	*d:	*	*d:	*
*omet(C)	*	*omet(C)	*	*omet(C)	*	*omet(C)	*	*omet(C)	*	*omet(C)	*
*M4/2	*	*M4/2	*	*M4/2	*	*M4/2	*	*M4/2	*	*M4/2	*
=1	=1	=1	=1	=1	=1	=1	=1	=1	=1	=1	=1
!!LO:TX:a:t=[Dodicesima parte]
0r	.	2.d	Dun-	0r	.	2.f#X	Dun-	2.a	Dun-	0r	.
.	.	4d	-que an-	.	.	4f#X	-que an-	4a	-que an-	.	.
.	.	2d	-dar	.	.	2f#X	-dar	2a	-dar	.	.
.	.	4G	non	.	.	4g	non	4b-y	non	.	.
.	.	4A	vo-	.	.	4fnXi	vo-	4a	vo-	.	.
=2	=2	=2	=2	=2	=2	=2	=2	=2	=2	=2	=2
2r	.	2c	-glia-	2r	.	2e	-glia-	2g	-glia-	2r	.
4r	.	2F	-mo?	4r	.	2f	-mo?	2a	-mo?	4r	.
4F	An-	.	.	4f	An-	.	.	.	.	4a	An-
4.G	-dar	1r	.	4.d	-dar	1r	.	1r	.	4.b-y	-dar
8F	io	.	.	8f	io	.	.	.	.	8a	io
2C	vo-	.	.	2e	vo-	.	.	.	.	2g	vo-
=3	=3	=3	=3	=3	=3	=3	=3	=3	=3	=3	=3
4C	-glio,	0r	.	4e	-glio,	0r	.	0r	.	4g	-glio,
2F	Ma	.	.	2c	Ma	.	.	.	.	2a	Ma
4C	non	.	.	4e	non	.	.	.	.	4cc	non
4.G	do-	.	.	4.d	do-	.	.	.	.	4.b-y	do-
8G	-ve	.	.	8d	-ve	.	.	.	.	8b-y	-ve
2G	tu	.	.	2d	tu	.	.	.	.	2g	tu
=4	=4	=4	=4	=4	=4	=4	=4	=4	=4	=4	=4
2F#X	sti-	2r	.	2d	sti-	2r	.	2r	.	2a	sti-
2G	-mi.	4r	.	2d	-mi.	4r	.	4r	.	2g	-mi.
.	.	4G	E	.	.	4d	E	4b-y	E	.	.
2r	.	2c	do-	2r	.	2e	do-	2g	do-	2r	.
4r	.	2F	-ve?	4r	.	2f	-ve?	2a	-ve?	4r	.
4FnXi	A	.	.	4f	A	.	.	.	.	4cc	A
=5	=5	=5	=5	=5	=5	=5	=5	=5	=5	=5	=5
1B-y	mor-	0r	.	1f	mor-	0r	.	0r	.	1dd	mor-
2F	-te,	.	.	2f	-te,	.	.	.	.	2cc	-te,
2F	S'al-	.	.	2c	S'al-	.	.	.	.	2a	S'al-
=6	=6	=6	=6	=6	=6	=6	=6	=6	=6	=6	=6
4F	-tro in	0r	.	4c	-tro in	0r	.	0r	.	4a	-tro in
4C	mio	.	.	4c	mio	.	.	.	.	4cc	mio
2G	pro	.	.	2d	pro	.	.	.	.	2b-y	pro
4G	non	.	.	4d	non	.	.	.	.	4b-y	non
4G	hai	.	.	4B-y	hai	.	.	.	.	4g	hai
2F	fat-	.	.	2c	fat-	.	.	.	.	2a	fat-
=7	=7	=7	=7	=7	=7	=7	=7	=7	=7	=7	=7
4F	-to	0r	.	4c	-to	0r	.	0r	.	4a	-to
4F	che	.	.	4c	che	.	.	.	.	4a	che
2F	quan-	.	.	2c	quan-	.	.	.	.	2a	quan-
2F	-to O-	.	.	2c	-to O-	.	.	.	.	2a	-to O-
4E	-ra	.	.	4c	-ra	.	.	.	.	4g	-ra
4D	mi	.	.	4A	mi	.	.	.	.	4f	mi
=8	=8	=8	=8	=8	=8	=8	=8	=8	=8	=8	=8
2C#X	nar-	1r	.	2A	nar-	1r	.	1r	.	2e	nar-
2D	-ri.	.	.	2A	-ri.	.	.	.	.	2d	-ri.
1r	.	2F	E	1r	.	2d	E	2a	E	1r	.
.	.	4.G	po-	.	.	4.d	po-	4.b-y	po-	.	.
.	.	8F	-co	.	.	8f	-co	8a	-co	.	.
=9	=9	=9	=9	=9	=9	=9	=9	=9	=9	=9	=9
0r	.	4c	par-	0r	.	4e	par-	4g	par-	0r	.
.	.	4G	-ti	.	.	4d	-ti	4g	-ti	.	.
.	.	2A	que-	.	.	2c#X	que-	2f#X	que-	.	.
.	.	2G	-sto,	.	.	2d	-sto,	2g	-sto,	.	.
.	.	2G	po-	.	.	2d	po-	2b-y	po-	.	.
=10	=10	=10	=10	=10	=10	=10	=10	=10	=10	=10	=10
0r	.	4A	-co	0r	.	4c	-co	4a	-co	0r	.
.	.	2c	par-	.	.	2e	par-	2g	par-	.	.
.	.	4G	-ti	.	.	4d	-ti	4g	-ti	.	.
.	.	2A	que-	.	.	2c#X	que-	2f#X	que-	.	.
.	.	2G	-sto?	.	.	2d	-sto?	2g	-sto?	.	.
=11	=11	=11	=11	=11	=11	=11	=11	=11	=11	=11	=11
2.F	Dun-	2.c	Dun-	2.A	Dun-	2.f	Dun-	2.a	Dun-	0r	.
4F	-que an-	4c	-que an-	4A	-que an-	4f	-que an-	4a	-que an-	.	.
2F	-dar	2c	-dar	2A	-dar	2f	-dar	2a	-dar	.	.
4BB-y	non	4d	non	4F	non	4f	non	4b-y	non	.	.
4D	vo-	4A	vo-	4F	vo-	4f	vo-	4a	vo-	.	.
=12	=12	=12	=12	=12	=12	=12	=12	=12	=12	=12	=12
2GG	-glia-	2B-y	-glia-	2G	-glia-	2d	-glia-	2g	-glia-	2r	.
4D	-mo,	4A	-mo,	4F	-mo,	2d	-mo,	2a	-mo,	2f	An-
2D	Dun-	2A	Dun-	2F	Dun-	.	.	.	.	.	.
.	.	.	.	.	.	2.d	Dun-	2r	.	4.a	-dar
4D	-que an-	4A	-que an-	4F	-que an-	.	.	.	.	.	.
.	.	.	.	.	.	.	.	.	.	8g	io
2D	-dar	2A	-dar	2F	-dar	.	.	[2a	Dun-	4f	vo-
.	.	.	.	.	.	4d	-que an-	.	.	4f	-glio,
=13	=13	=13	=13	=13	=13	=13	=13	=13	=13	=13	=13
4.F	non	4.A	non	4.F	non	2c	-dar	4a]	.	1r	.
.	.	.	.	.	.	.	.	4a	-que an-	.	.
8E	vo-	8G	vo-	8G	vo-	.	.	.	.	.	.
2D	-glia-	2F#X	-glia-	2A	-glia-	4d	non	2a	-dar	.	.
.	.	.	.	.	.	4d	vo-	.	.	.	.
2GG	-mo,	2G	-mo?	2G	-mo,	1d	-glia-	4b-y	non	2g	An-
.	.	.	.	.	.	.	.	4a	vo-	.	.
[2G	Dun-	2r	.	[2B-y	Dun-	.	.	2g	-glia-	4.b-y	-dar
.	.	.	.	.	.	.	.	.	.	8a	io
=14	=14	=14	=14	=14	=14	=14	=14	=14	=14	=14	=14
4G]	.	0r	.	4B-y]	.	2d	-mo,	2d	-mo,	2g	vo-
4G	-que an-	.	.	4B-y	-que an-	.	.	.	.	.	.
2G	-dar	.	.	2B-y	-dar	2g	Dun-	2.b-y	Dun-	2g	-glio,
4.B-y	non	.	.	4.d	non	4f	-que an-	.	.	1r	.
.	.	.	.	.	.	4d	-dar	4b-y	-que an-	.	.
8A	vo-	.	.	8c	vo-	.	.	.	.	.	.
2G	-glia-	.	.	2B-y	-glia-	2d	non	2b-y	-dar	.	.
=15	=15	=15	=15	=15	=15	=15	=15	=15	=15	=15	=15
0F	-mo?	0r	.	0A	-mo?	2f	vo-	4.cc	non	2a	<An-
.	.	.	.	.	.	.	.	8b-y	vo-	.	.
.	.	.	.	.	.	1c	-glia-	2a	-glia-	4.cc	-dar
.	.	.	.	.	.	.	.	.	.	8b-y	io
.	.	.	.	.	.	.	.	1f	-mo?	2a	vo-
.	.	.	.	.	.	2c	-mo?	.	.	4a	-glio,>
.	.	.	.	.	.	.	.	.	.	[4a	Ma
=16	=16	=16	=16	=16	=16	=16	=16	=16	=16	=16	=16
1r	.	1r	.	1r	.	1r	.	1r	.	4a]	.
.	.	.	.	.	.	.	.	.	.	4cc	non
.	.	.	.	.	.	.	.	.	.	4.b-y	do-
.	.	.	.	.	.	.	.	.	.	8b-y	-ve
2r	.	2r	.	2r	.	2r	.	2r	.	4g	tu
.	.	.	.	.	.	.	.	.	.	2a	sti-
4r	.	4r	.	4r	.	4r	.	4r	.	.	.
4F	E	4cc	E	4A	E	4f	E	4cc	E	4a	-mi.
=17	=17	=17	=17	=17	=17	=17	=17	=17	=17	=17	=17
2F	do-	2cc	do-	2F	do-	2f	do-	2a	do-	2r	.
2BB-y	-ve?	2dd	-ve?	2F	-ve?	2f	-ve?	2b-y	-ve?	4r	.
.	.	.	.	.	.	.	.	.	.	4dd	A
2r	.	2r	.	1r	.	2r	.	1r	.	[1dd	mor-
2GG	An-	2d	An-	.	.	2B-y	An-	.	.	.	.
=18	=18	=18	=18	=18	=18	=18	=18	=18	=18	=18	=18
4.BB-y	-dar	4d	-dar	2B-y	An-	4.d	-dar	2r	.	1dd]	.
.	.	4f	io	.	.	.	.	.	.	.	.
8AA	io	.	.	.	.	8c	io	.	.	.	.
4GG	vo-	4g	vo-	2d	-dar	4B-y	vo-	4b-y	E	.	.
8D	-glio,	8a	-glio,	.	.	8f	-glio,	2a	do-	.	.
8D	An-	8a	An-	.	.	8f	An-	.	.	.	.
4.F	-dar	4.a	-dar	4c	io	2.f	-dar	.	.	2cc	-te.
.	.	.	.	2A	vo-	.	.	2a	-ve,	.	.
8E	io	8g	io	.	.	.	.	.	.	.	.
4D	vo-	4f	vo-	.	.	.	.	.	.	4r	.
4D	-glio, An-	4f	-glio,	4A	-glio,	4d	io	4f	E	4a	An-
=19	=19	=19	=19	=19	=19	=19	=19	=19	=19	=19	=19
4.A	-dar	1r	.	1r	.	2c	vo-	2e	do-	4.cc	-dar
8G	io	.	.	.	.	.	.	.	.	8b-y	io
2F	vo-	.	.	.	.	2.c	-glio,	2f	-ve?	2a	vo-
4C	-glio,	4r	.	2.c	Ma	.	.	1r	.	4g	-glio,
2F	Ma	2a	Ma	.	.	2f	Ma	.	.	2a	Ma
4C	non	4g	non	4c	non	4e	non	.	.	4cc	non
=20	=20	=20	=20	=20	=20	=20	=20	=20	=20	=20	=20
4.G	do-	4.b-y	do-	4.d	do-	4.g	do-	1r	.	4.b-y	do-
8G	-ve	8b-y	-ve	8d	-ve	8g	-ve	.	.	8b-y	-ve
2G	tu	2b-y	tu	2d	tu	2g	tu	.	.	2g	tu
2D	sti-	2a	sti-	2d	sti-	2f#X	sti-	2r	.	2a	sti-
2GG	-mi.	4b-y	-mi.	2d	-mi.	4g	-mi.	4r	.	2g	-mi.
.	.	4b-y	E	.	.	4g	E	4b-y	E	.	.
=21	=21	=21	=21	=21	=21	=21	=21	=21	=21	=21	=21
2r	.	2cc	do-	2r	.	2e	do-	2g	do-	2r	.
4r	.	2f	-ve?	4r	.	2f	-ve?	2a	-ve?	4r	.
4F	E	.	.	4A	E	.	.	.	.	4cc	E
2F	do-	2r	.	2c	do-	2r	.	2r	.	2a	do-
2BB-y	-ve?	4r	.	2d	-ve?	4r	.	4r	.	2b-y	-ve?
.	.	4b-y	A	.	.	4f	A	4b-y	A	.	.
=22	=22	=22	=22	=22	=22	=22	=22	=22	=22	=22	=22
2r	.	1b-y	mor-	0r	.	1.f	mor-	1.dd	mor-	2r	.
4r	.	.	.	.	.	.	.	.	.	2d	A
4BB-y	A	.	.	.	.	.	.	.	.	.	.
[1F	mor-	2a	-te,	.	.	.	.	.	.	[1a	mor-
.	.	2f	A	.	.	4c	-te,	4cc	-te,	.	.
.	.	.	.	.	.	4c	A	4cc	A	.	.
=23	=23	=23	=23	=23	=23	=23	=23	=23	=23	=23	=23
2F]	.	1.g	mor-	2r	.	2e-X	mor-	1.b-y	mor-	2a]	.
4E-X	-te,	.	.	2B-y	A	2e-i	-te,	.	.	4g	-te,
4E-i	A	.	.	.	.	.	.	.	.	4g	A
1D	mor-	.	.	1d	mor-	2r	.	.	.	[1f	mor-
.	.	4f	-te,	.	.	2f	A	4a	-te,	.	.
.	.	4f	A	.	.	.	.	4a	A	.	.
=24	=24	=24	=24	=24	=24	=24	=24	=24	=24	=24	=24
1D	-te,	2.f	mor-	1A	-te,	2.d	mor-	2.a	mor-	2f]	.
.	.	.	.	.	.	.	.	.	.	2f	-te,
.	.	4f	-te,	.	.	4d	-te,	4a	-te,	.	.
2D	S'al-	2f	S'al-	2A	S'al-	2d	S'al-	2a	S'al-	2f	S'al-
4D	-tro in	4f	-tro in	4A	-tro in	4d	-tro in	4a	-tro in	4f	-tro in
4AA	mio	4f	mio	4A	mio	4c	mio	4cc	mio	4a	mio
=25	=25	=25	=25	=25	=25	=25	=25	=25	=25	=25	=25
2BB-y	pro	2f	pro	2D	pro	2d	pro	2b-y	pro	2f	pro
4BB-y	non	4f	non	4D	non	4d	non	4b-y	non	4f	non
4C	hai	4cc	hai	4G	hai	4c	hai	4g	hai	4e	hai
2FF	fat-	2a	fat-	2F	fat-	2c	fat-	2a	fat-	2f	fat-
4FF	-to	2a	-to.	4F	-to	4c	-to	4a	-to	[4f	-to
4FF	che	.	.	4F	che	4c	che	4a	che	4f]	che
=26	=26	=26	=26	=26	=26	=26	=26	=26	=26	=26	=26
2FF	quan-	0r	.	2A	quan-	2c	quan-	2a	quan-	2f	quan-
2F	-to O-	.	.	2A	-to O-	2c	-to O-	2a	-to O-	2f	-to O-
4C	-ra	.	.	4c	-ra	4c	-ra	4g	-ra	4e	-ra
4FF	mi	.	.	4A	mi	4c	mi	4f	mi	4f	mi
2C	nar-	.	.	2G	nar-	2c	nar-	2e	nar-	2g	nar-
=27	=27	=27	=27	=27	=27	=27	=27	=27	=27	=27	=27
1FF	-ri.	2r	.	1A	-ri.	2c	-ri.	1f	-ri.	2f	-ri.
.	.	2f	E	.	.	2f	E	.	.	2cc	E
1r	.	4.b-y	po-	1r	.	4.f	po-	1r	.	4.dd	po-
.	.	8a	-co	.	.	8f	-co	.	.	8cc	-co
.	.	4g	par-	.	.	4g	par-	.	.	4b-y	par-
.	.	4g	-ti	.	.	4g	-ti	.	.	4b-y	-ti
=28	=28	=28	=28	=28	=28	=28	=28	=28	=28	=28	=28
2r	.	2d	que-	2r	.	2f#X	que-	2r	.	2a	que-
4r	.	4g	-sto,	4r	.	4g	-sto,	4r	.	4b-y	-sto,
4FF	E	4a	E	4c	E	4fnXi	E	4cc	E	4a	E
4.BB-y	po-	4.f	po-	4.B-y	po-	4.f	po-	4.dd	po-	4.b-y	po-
8FF	-co	8a	-co	8c	-co	8f	-co	8cc	-co	8a	-co
4GG	par-	4b-y	par-	4G	par-	4d	par-	4b-y	par-	4g	par-
4GG	-ti	4g	-ti	4D	-ti	4d	-ti	4b-y	-ti	4g	-ti
=29	=29	=29	=29	=29	=29	=29	=29	=29	=29	=29	=29
2D	que-	2a	que-	2D	que-	2d	que-	2a	que-	2f	que-
4GG	-sto,	4g	-sto,	4d	-sto,	4d	-sto,	4b-y	-sto,	4g	-sto,
2E-X	po-	2g	po-	2B-y	po-	2g	po-	2ee-X	po-	2b-y	po-
4BB-y	-co	4d	-co	4d	-co	4f	-co	4dd	-co	4b-y	-co
[2C	par-	[2e	par-	[2G	par-	[2e	par-	[2cc	par-	[2g	par-
=30	=30	=30	=30	=30	=30	=30	=30	=30	=30	=30	=30
2C]	.	2e]	.	2G]	.	2e]	.	2cc]	.	2g]	.
2C	-ti	2c	-ti	2G	-ti	2e	-ti	2cc	-ti	2g	-ti
1GG	que-	1d	que-	1G	que-	1d	que-	4bnX	que-	1g	que-
.	.	.	.	.	.	.	.	2cc	.	.	.
.	.	.	.	.	.	.	.	4bnX	.	.	.
=31	=31	=31	=31	=31	=31	=31	=31	=31	=31	=31	=31
00Cl	-sto?	00cl	-sto?	00Gl	-sto?	00el	-sto?	00ccl	-sto?	00gl	-sto?
==	==	==	==	==	==	==	==	==	==	==	==
*-	*-	*-	*-	*-	*-	*-	*-	*-	*-	*-	*-
!!!system-decoration: [*]
!!!RDF**kern: i = editorial accidental
!!!RDF**kern: l = terminal long
!!!ENC: Emiliano Ricciardi
!!!END: 2018/12/02
!!!EED: Coluzzi, Seth
!!!EEV: 2019/01/21
!!!YEC: Copyright 2018 Emiliano Ricciardi, All Rights Reserved
!!!ONB: Translated from MusicXML on 2019/01/21
!!@@BEGIN:	VERSEDATA
!!@CATALOGNUM:	Tam2031109
!!@LAST_MODIFIED: 2020/07/12
!!@ACT:      II
!!@SCENE:    3
!!@VERSE:    1109
!!@TITLE:    Dunque andar non vogliamo? Andare io voglio
!!@MANUSRC:	A-Am, A-Au, A-Br, A-CM, A-F, A-Ub
!!@PRINTSRC:	A-1580D, A-1580M, A-1581B, A-1581B<sub>bis</sub>, A-1581M, A-1581M<sub>bis</sub>, A-1581O, A-1581V, A-1582B, A-1583M, A-1583V, A-1584A, A-1585C, A-1585V, A-1585V<sub>bis</sub>, A-1588B, A-1589M, A-1589V, A-1590Mb, A-1590Mv, A-1591M, A-1591W, A-1592B, A-1596B, A-1596M, A-1599Bf, A-1599Bp, A-1600R, A-1601Bf, A-1601Bp, A-1602B, A-1603Bf, A-1603Bv, A-1603Z, A-1605R, A-1606Z, A-1608D, A-1608DP, A-1609Bf, A-1609Bv, A-1609Z, A-1611D, A-1614GT, A-1617D, A-1618B, A-1619D, A-1619I, A-1620V, A-1622D, A-1623A, A-1624M, A-1624S, A-1624T, A-1625U, A-1628U, A-1632D, A-1634R
!!@@BEGIN:	VERSES
!!@ABOUTIT:	
!!@ABOUTEN:	
!!@EDITOR:	Solerti, Angelo
!!@EDITION_TITLE: Opere minori in versi di Torquato Tasso. Edizione critica sugli autografi e sulle antiche stampe.
!!@EDITION_LOC:	Bologna
!!@EDITION_PUB:	Zanichelli
!!@EDITION_DATE:  1895
!!@EDITION_VOL:	3
!!@EDITION_PAGE:
!!@TRANSLATOR:	Emiliano Ricciardi and Amyrose McCue Gill
!!@VERSE:	
!!	TIRSI: Dunque andar non vogliamo?
!!	AMINTA: Andare voglio io,
!!	Ma non dove tu stimi.
!!	TIRSI: E dove?
!!	AMINTA: A morte,
!!	S'altro in mio pro' non hai fatto che quanto
!!	Hora mi narri
!!	TIRSI: E poco parti questo?
!!@TVERSE:
!!	THYRSIS: Therefore we do not wish to go?
!!	AMINTA: I wish to go,
!!	But not where you might guess.
!!	THYRSIS: And where?
!!	AMINTA: To death,
!!	If nothing else on my behalf you have done but that which
!!	You now describe to me.
!!	THYRSIS: And this seems little to you?
!!@@END:		VERSES
!!@NEW_CRIT_ED:   Torquato Tasso, <i>Aminta. "Princeps."</i>, ed. Matteo Navone, vol. 9 of Commissione Nazionale per l'Edizione delle opere del Tasso. Studi e Testi (Alessandria: Edizioni dell'Orso, 2014).
!!@ATTRIBUTION_ABOUT:	
!!@DATING:	1573
!!@DEDICATEE:	
!!@COMMENTARY:
!!@@END:		VERSEDATA
!!@@BEGIN: SETTING
!!@CATALOGNUM:	Tam2031109a
!!@ACT:		II
!!@SCENE:		3
!!@VERSE:		1109
!!@TITLE:		Dunque andar non vogliamo? Andare io voglio
!!@COMPOSER:	Balsamino, Simone
!!@PRINCEPSTITLE:	Novellette a sei voci
!!@PRINCEPSLOC:	Venice
!!@NORMLOC:	Venice
!!@NORMPUB:	Amadino
!!@NORMPUBSHORT:	Amadino
!!@PRINCEPSPUB:	Amadino
!!@PRINCEPSYEAR:	1594
!!@PRINCEPSRISM:	B 785
!!@OVOICES:	6
!!@EXTANTVOICES:	6
!!@OMENSURATION:	C
!!@OCLEFS:	C1,C1,C3,C4,C4,F4
!!@OTIME:		
!!@OKEYSIG:	b-
!!@FINAL:		(C)F
!!@TIMPEDITOR:	Coluzzi, Seth
!!@PARTS:		1 of 1
!!@REPRINTS:	
!!@@END: SETTING
